elevenfeat/templates/feat/toolbar/icons/edit.svg

<?xml version="1.0" encoding="UTF-8" standalone="no"?>
<svg width="16px" height="17px" viewBox="0 0 16 17" version="1.1" xmlns="http://www.w3.org/2000/svg" xmlns:xlink="http://www.w3.org/1999/xlink">
    <!-- Generator: Sketch 39.1 (31720) - http://www.bohemiancoding.com/sketch -->
    <title>Shape</title>
    <desc>Created with Sketch.</desc>
    <defs></defs>
    <g id="Page-1" stroke="none" stroke-width="1" fill="none" fill-rule="evenodd">
        <path d="M0,16.005 L3.33379636,16.005 L13.1707182,6.16807821 L9.83692179,2.83428184 L0,12.6712036 L0,16.005 Z M15.7399639,3.59883248 C16.0866787,3.25211766 16.0866787,2.6875948 15.7399639,2.34087998 L13.66412,0.265036116 C13.3174052,-0.0816787054 12.7528823,-0.0816787054 12.4061675,0.265036116 L10.7792749,1.89192874 L14.1130713,5.2257251 L15.7399639,3.59883248 L15.7399639,3.59883248 Z" id="Shape" fill="#FFFFFF"></path>
    </g>
</svg>

<svg width="16" height="17" viewBox="0 0 16 17" xmlns="http://www.w3.org/2000/svg"><title>Shape</title><path d="M0 16.005h3.334l9.837-9.837-3.334-3.334L0 12.671v3.334zM15.74 3.599a.89.89 0 0 0 0-1.258L13.664.265a.89.89 0 0 0-1.258 0L10.78 1.892l3.334 3.334 1.627-1.627z" fill="#FFF" fill-rule="evenodd"/></svg>
